X:1
T:The Wheat and the Tares
T:The Wheat and the Tares
T:John R. Bryant
T:Mattie M. Boteler, 1905
T:Public Domain Courtesy of the Cyber Hymnal™
T:Public Domain Courtesy of the Cyber Hymnal™
C:John R. Bryant
Z:Public Domain
Z:Courtesy of the Cyber Hymnal™
%%score ( 1 2 ) ( 3 4 )
L:1/8
Q:1/4=88
M:4/4
K:Db
V:1 treble 
V:2 treble 
V:3 bass 
V:4 bass 
V:1
 D[DE] | [DF]2 [DF]>[DG] [DF][DE]D[DE] | [DF][EG][FA][GB] [FA][DF][DF][EG] | %3
w: 1.~In the|field by the way- side grow the|wheat and tares to- ge- ther, And they|
w: 2.~Sa- tan|came while the keep- er was a-|sleep and sown with mal- ice Far and|
w: 3.~In the|field of your heart is plen- ty|fal- low ground, my bro- ther, And the|
w: 4.~Will you|let Him up- root the thorns and|bri- ars that en- cum- ber? Let Him|
 [FA]2 [FA]>[FA] [GB][FA][DF][EG] | [FA][FA][EG][DF] [CE]2 D[DE] | [DF]2 [DF]>[EG] [DF][DE]D[DE] | %6
w: both in the sun- light now ap-|pear so fair to see; But the|har- vest is com- ing when to-|
w: wide in the fal- low ground he|scat- tered seeds of sin; The re-|morse now of con- science may- be|
w: seed of the Word a- bun- dant|fall- eth there to- night; Will you|cher- ish and nour- ish it and|
w: plant in your heart His pre- cious|im- age there in- stead? Will you|find o’er the thou- sand fold it|
 [DF][EG][FA][GB] [FA]!fermata![_Fd][Fd][Fd] | [Fc][FB][FA][GB] [FA]2 [CG][CE] | D6 || %9
w: ge- ther they’ll be ga- thered, And the|sep- a- ra- tion day then shall|be.|
w: fills your rest- less spir- it, And the|dread- ed days of har- vest be-|gin.|
w: give it place of wel- come? Will you|take your stand for God and for|right?|
w: pays you with- out num- ber When the|sheaves of time have been har- vest-|ed.|
"^Refrain" [FA]2 | [GB][GB][GB][GB] [GB][GB][Bd][GB] | [FA][FA][EA][EA] [FA]2 [DF][DF] | %12
w: |||
w: |||
w: |||
w: |||
 [EG][CE][CE][DF] [EG]2 [EG][EG] | [GB][DF][DF][EG] [FA]2 [FA][FA] | %14
w: ||
w: ||
w: ||
w: ||
 [GB][GB][GB][GB] [GB]2 [Bd][GB] | [FA][FA][EA][EA] [FA]2 AA | [Gc]3 [Gc] [GB]2 [GA]2 | d6 |] %18
w: ||||
w: ||||
w: ||||
w: ||||
V:2
 D x | x6 D x | x8 | x8 | x6 D x | x6 D x | x8 | x8 | D6 || x2 | x8 | x8 | x8 | x8 | x8 | x6 AA | %16
 x8 | (FF=EE F2) |] %18
V:3
 [D,F,][D,G,] | [D,A,]2 [D,A,]>[D,B,] [D,A,][D,G,][D,F,][D,G,] | %2
w: ~ ~|~ ~ ~ ~ ~ ~ ~|
 [D,A,][D,D][D,D][D,D] [D,D][D,A,][D,A,][D,A,] | [D,D]2 [D,D]>[D,D] [D,D][D,D][D,A,][D,A,] | %4
w: ~ ~ ~ ~ ~ ~ ~ ~|~ ~ ~ ~ ~ ~ ~|
 [D,D][D,D][D,A,][D,A,] [A,,A,]2 [D,F,][D,G,] | [D,A,]2 [D,A,]>[D,A,] [D,A,][D,G,][D,F,][D,G,] | %6
w: ~ ~ ~ ~ ~ ~ ~|~ ~ ~ ~ ~ ~ ~|
 [D,A,][D,D][D,D][D,D] [D,D]!fermata![B,,=G,][B,,G,][B,,G,] | %7
w: ~ ~ ~ ~ ~ ~ ~ ~|
 [A,,A,][A,,D][A,,D][A,,D] [A,,D]2 [A,,A,][A,,G,] | [D,F,]6 || [D,D]2 | %10
w: ~ ~ ~ ~ ~ ~ ~|~|What|
 [G,D][G,D][G,D][G,D] [G,D][G,D][G,D][G,D] | [D,D][D,D][A,,C][A,,C] [D,D]2 [D,A,][D,A,] | %12
w: then shall be your har- vest, When the|dread- ful day you see? Will you|
 [A,,A,][A,,A,][A,,A,][A,,A,] [A,,A,]2 [A,,A,][A,,A,] | %13
w: with the wick- ed stand, Or ap-|
 [D,A,][D,A,][D,A,][D,A,] [D,D]2 [D,D][D,D] | [G,D][G,D][G,D][G,D] [G,D]2 [G,D][G,D] | %15
w: pear at His right hand? When the|saints are meet- ing there, What a|
 [D,D][D,D][A,,C][A,,C] [D,D]2 [F,D][F,D] | [A,E]3 [A,E] [A,E]2 [A,C]2 | (A,A,=G,G, A,2) |] %18
w: greet- ing in the air, Will you|with the right- eous|be? * * * *|
V:4
 x2 | x8 | x8 | x8 | x8 | x8 | x8 | x8 | x6 || x2 | x8 | x8 | x8 | x8 | x8 | x8 | x8 | D,6 |] %18

